X: 42
T:Garry Owen
M:6/8
L:1/8
Q:90
C:Traditional
R:Jig
K:G
gf|:"G"edc BAG|BcB Bgf|edc BAG|"D"ABA Agf|"G"edc BAG|BcB B2 d|!
def gdB|[1"D"ABA A gf|[2"D" ABA ABc||"G"d2B d2B|d2 B dgf|"C"e2c e2c|!
e2 c e2 f|"G"g2 a b2 a|gfe d2 B|def gdB|[1"D"ABA ABc:|[2"D"ABA "G"[G3B3]
|]
